packages/foundations/assets/icons/functional/images/human/shower_16.svg

<svg width="16" height="16" viewBox="0 0 16 16" fill="none" xmlns="http://www.w3.org/2000/svg">
<g clip-path="url(#clip0_185_1170)">
<path fill-rule="evenodd" clip-rule="evenodd" d="M6.80062 11.1998C7.86106 11.1998 8.72874 12.0251 8.79646 13.0684L8.80072 13.1999V13.5999C8.80072 14.0418 8.4425 14.4 8.00062 14.4C7.5903 14.4 7.2058 14.0991 7.20052 13.5999C7.19911 13.4666 7.19911 13.3333 7.20052 13.1999C7.20052 13.0036 7.05527 12.8005 6.80062 12.8C5.73442 12.7979 4.66775 12.7979 3.60062 12.8C3.4043 12.8 3.20423 12.9423 3.20072 13.1999C3.1989 13.3333 3.1989 13.4666 3.20072 13.5999C3.20072 14.0418 2.8425 14.4 2.40062 14.4C1.9903 14.4 1.60574 14.079 1.60052 13.5999C1.59906 13.4666 1.59906 13.3333 1.60052 13.1999C1.60052 12.1395 2.44306 11.2 3.60062 11.1998C4.66717 11.1985 5.73384 11.1985 6.80062 11.1998ZM5.21792 5.39999C6.43262 5.39999 7.40062 6.36795 7.40057 7.58265C7.40841 8.79696 6.4322 9.78866 5.21792 9.79994C3.99685 9.79149 3.00907 8.80371 3.00062 7.58265C3.01196 6.36838 4.00363 5.39221 5.21792 5.39999ZM11.2655 8.00384C11.5883 7.92928 11.9104 8.13066 11.9851 8.45353C12.0597 8.77625 11.8585 9.09843 11.5357 9.17286C11.2129 9.24728 10.8908 9.04604 10.8162 8.72317C10.7415 8.40031 10.9427 8.07827 11.2655 8.00384ZM13.4986 7.68122C13.7849 7.51481 14.1523 7.61211 14.3191 7.89853C14.4857 8.18496 14.3888 8.55213 14.1026 8.71867C13.8163 8.88508 13.4491 8.78778 13.2823 8.50136C13.1155 8.21479 13.2123 7.84763 13.4986 7.68122ZM8.48198 7.89667C8.64838 7.61048 9.01554 7.51353 9.30195 7.68032C9.5885 7.8471 9.6858 8.21436 9.51926 8.50056C9.35272 8.78689 8.98557 8.88384 8.69915 8.71705C8.41274 8.55027 8.31544 8.18301 8.48198 7.89667ZM11.2655 6.15684C11.5884 6.08242 11.9105 6.2838 11.985 6.60653C12.0598 6.9294 11.8586 7.25144 11.5358 7.32587C11.213 7.40043 10.8908 7.19905 10.8162 6.87618C10.7415 6.55345 10.9427 6.2314 11.2655 6.15684ZM9.08189 6.09806C9.2483 5.81174 9.6156 5.71479 9.90203 5.88157C10.1885 6.04836 10.2858 6.41561 10.1193 6.70193C9.9528 6.98825 9.58563 7.08506 9.29921 6.91828C9.01278 6.75164 8.91548 6.38425 9.08189 6.09806ZM12.8986 5.88131C13.1849 5.71477 13.5522 5.81207 13.719 6.0985C13.8858 6.38492 13.7888 6.75209 13.5026 6.91864C13.2163 7.08505 12.849 6.98789 12.6823 6.70132C12.5155 6.4149 12.6124 6.04772 12.8986 5.88131ZM11.4006 1.59995C11.8109 1.59995 12.2005 1.94283 12.2005 2.39995V3.45914L12.5316 3.49981L13.3166 3.6084C13.7538 3.67247 14.0562 4.0788 13.9922 4.51595C13.9281 4.95311 13.5218 5.25556 13.0846 5.19149L12.0719 5.05553C11.8456 5.01847 11.6209 4.99995 11.398 4.99995C11.1751 4.99995 10.9522 5.01847 10.7293 5.05553L9.71663 5.19149C9.27947 5.25556 8.87314 4.95311 8.80907 4.51595C8.745 4.0788 9.04745 3.67247 9.48461 3.6084L10.2696 3.49981L10.6005 3.46074L10.6006 2.39995C10.6006 1.95812 10.9588 1.59995 11.4006 1.59995Z" fill="#1A1C1F"/>
</g>
<defs>
<clipPath id="clip0_185_1170">
<rect width="16" height="16" fill="white"/>
</clipPath>
</defs>
</svg>

<svg xmlns="http://www.w3.org/2000/svg" width="16" height="16" fill="none"><g clip-path="url(#a)"><path fill="#1A1C1F" fill-rule="evenodd" d="M6.8 11.2a2 2 0 0 1 1.996 1.868l.005.132v.4a.8.8 0 0 1-.8.8c-.41 0-.795-.3-.8-.8a19 19 0 0 1 0-.4c0-.196-.146-.4-.4-.4a813 813 0 0 0-3.2 0 .394.394 0 0 0-.4.4q-.003.2 0 .4a.8.8 0 1 1-1.6 0 18 18 0 0 1 0-.4c0-1.06.842-2 2-2q1.6-.003 3.2 0M5.219 5.4A2.17 2.17 0 0 1 7.4 7.583 2.203 2.203 0 0 1 5.218 9.8 2.233 2.233 0 0 1 3 7.583 2.203 2.203 0 0 1 5.218 5.4m6.047 2.604a.6.6 0 1 1 .27 1.17.6.6 0 0 1-.27-1.17M13.5 7.68a.6.6 0 1 1 .603 1.04.6.6 0 0 1-.603-1.04m-5.017.216a.6.6 0 1 1 1.036.603.6.6 0 0 1-1.036-.603m2.784-1.74a.6.6 0 1 1 .27 1.17.6.6 0 0 1-.27-1.17m-2.184-.059a.6.6 0 1 1 1.036.603.6.6 0 0 1-1.036-.603m3.817-.217a.6.6 0 1 1 .603 1.038.6.6 0 0 1-.603-1.038M11.4 1.6c.41 0 .8.343.8.8v1.06l.33.04.786.108a.8.8 0 0 1-.232 1.583l-1.013-.135a4.2 4.2 0 0 0-1.343 0l-1.012.135a.8.8 0 0 1-.232-1.583l.785-.108.33-.04V2.4a.8.8 0 0 1 .8-.8" clip-rule="evenodd"/></g><defs><clipPath id="a"><path fill="#fff" d="M0 0h16v16H0z"/></clipPath></defs></svg>
